dist/svg/u1F469_u1F3FD_u200D_u1F9B3.svg

<?xml version="1.0" encoding="UTF-8"?><svg id="Layer_1" xmlns="http://www.w3.org/2000/svg" viewBox="0 0 40 40"><g><path d="M2.83127,33.62434S.77504,11.02357,11.70528,6.23343c0,0,3.00473-4.35468,9.71093-3.65793,6.7062,.69675,11.8276,5.86209,13.54304,10.53831,1.27791,3.48353,2.54188,10.85829,2.34227,19.40385-.02317,.99201-.55634,1.90143-1.40425,2.41684-1.85016,1.12464-6.13754,2.56549-15.96164,2.56549-16.1123,0-17.10434-3.87566-17.10434-3.87566Z" style="fill:#f2f2f2;"/><path d="M25.01595,17.24605c-5.91607-.87943-9.76429-4.79797-10.99618-6.23213-.16752-.19503-.48357-.10964-.52987,.14325-.2871,1.56802-1.30652,5.55715-4.55017,8.44869,0,0-.54405,.4159-1.15363,1.23403-.89543,1.20179-1.24784,2.73238-.99433,4.20949,1.10791,6.4555,6.50395,11.3548,12.99719,11.3548,6.10314,0,11.23695-4.32877,12.75252-10.20915,.75391-4.36781-1.89128-8.11147-7.52553-8.94898Z" style="fill:#c3846c;"/><ellipse cx="15.80867" cy="22.10691" rx="1.46968" ry="1.76362"/><ellipse cx="23.56861" cy="22.10691" rx="1.46968" ry="1.76362"/><path d="M21.51845,29.85511c.3295,0,.56333,.31648,.47614,.63423-.2779,1.01268-1.20503,1.75674-2.30594,1.75674s-2.02805-.74406-2.30594-1.75674c-.0872-.31775,.14664-.63423,.47614-.63423h3.65962Z" style="fill:#5c2f17;"/></g><rect width="40" height="40" style="fill:none;"/></svg>

<svg id="Layer_1" data-name="Layer 1" xmlns="http://www.w3.org/2000/svg" viewBox="0 0 40 40"><defs><style>.cls-1{fill:#f2f2f2;}.cls-2{fill:#c3846c;}.cls-3{fill:#5c2f17;}.cls-4{fill:none;}</style></defs><path class="cls-1" d="M2.831,33.624S.775,11.024,11.705,6.233c0,0,3.005-4.354,9.711-3.657A16.921,16.921,0,0,1,34.959,13.114C36.237,16.6,37.5,23.972,37.3,32.518A2.916,2.916,0,0,1,35.9,34.935C34.047,36.059,29.76,37.5,19.936,37.5,3.823,37.5,2.831,33.624,2.831,33.624Z"/><path class="cls-2" d="M25.016,17.246a18.677,18.677,0,0,1-11-6.232.3.3,0,0,0-.53.143,15.318,15.318,0,0,1-4.55,8.449A6.735,6.735,0,0,0,7.786,20.84a5.5,5.5,0,0,0-.994,4.209,13.388,13.388,0,0,0,13,11.355A13.325,13.325,0,0,0,32.541,26.2C33.3,21.827,30.65,18.084,25.016,17.246Z"/><ellipse cx="15.809" cy="22.107" rx="1.47" ry="1.764"/><ellipse cx="23.569" cy="22.107" rx="1.47" ry="1.764"/><path class="cls-3" d="M21.518,29.855a.5.5,0,0,1,.477.634,2.392,2.392,0,0,1-4.612,0,.5.5,0,0,1,.476-.634Z"/><rect class="cls-4" width="40" height="40"/></svg>
